src/icons/svg/fanbei.svg

<?xml version="1.0" standalone="no"?><!DOCTYPE svg PUBLIC "-//W3C//DTD SVG 1.1//EN" "http://www.w3.org/Graphics/SVG/1.1/DTD/svg11.dtd"><svg class="icon" width="128px" height="128.00px" viewBox="0 0 1024 1024" version="1.1" xmlns="http://www.w3.org/2000/svg"><path fill="#1296db" d="M512 85.333333c235.637333 0 426.666667 191.029333 426.666667 426.666667S747.637333 938.666667 512 938.666667 85.333333 747.637333 85.333333 512 276.362667 85.333333 512 85.333333z m0 64c-200.298667 0-362.666667 162.368-362.666667 362.666667s162.368 362.666667 362.666667 362.666667 362.666667-162.368 362.666667-362.666667-162.368-362.666667-362.666667-362.666667z m117.333333 202.666667c58.912 0 106.666667 47.754667 106.666667 106.666667a98.581333 98.581333 0 0 1-37.002667 76.981333L635.221333 586.666667H714.666667a32 32 0 0 1 0 64H544c-30.250667 0-43.605333-38.090667-19.989333-56.992l135.008-108.010667A34.581333 34.581333 0 0 0 672 458.666667a42.666667 42.666667 0 1 0-85.333333 0 32 32 0 0 1-64 0c0-58.912 47.754667-106.666667 106.666666-106.666667zM286.709333 468.042667a32 32 0 0 1 45.248 0L373.333333 509.408l41.376-41.365333a32 32 0 0 1 43.712-1.44l1.536 1.44a32 32 0 0 1 0 45.248L418.592 554.666667l41.365333 41.376a32 32 0 0 1 1.44 43.712l-1.44 1.536a32 32 0 0 1-45.248 0L373.333333 599.925333l-41.376 41.365334a32 32 0 0 1-43.712 1.44l-1.536-1.44a32 32 0 0 1 0-45.248L328.074667 554.666667l-41.365334-41.376a32 32 0 0 1-1.44-43.712z" /></svg>

<svg class="icon" width="128" height="128" viewBox="0 0 1024 1024" xmlns="http://www.w3.org/2000/svg"><path fill="#1296db" d="M512 85.333c235.637 0 426.667 191.03 426.667 426.667S747.637 938.667 512 938.667 85.333 747.637 85.333 512 276.363 85.333 512 85.333zm0 64c-200.299 0-362.667 162.368-362.667 362.667S311.701 874.667 512 874.667 874.667 712.299 874.667 512 712.299 149.333 512 149.333zM629.333 352C688.245 352 736 399.755 736 458.667a98.581 98.581 0 0 1-37.003 76.981l-63.776 51.019h79.446a32 32 0 0 1 0 64H544c-30.25 0-43.605-38.091-19.99-56.992L659.02 485.664A34.581 34.581 0 0 0 672 458.667a42.667 42.667 0 1 0-85.333 0 32 32 0 0 1-64 0C522.667 399.755 570.42 352 629.333 352zM286.71 468.043a32 32 0 0 1 45.248 0l41.376 41.365 41.376-41.365a32 32 0 0 1 43.712-1.44l1.536 1.44a32 32 0 0 1 0 45.248l-41.365 41.376 41.365 41.376a32 32 0 0 1 1.44 43.712l-1.44 1.536a32 32 0 0 1-45.248 0l-41.376-41.366-41.376 41.366a32 32 0 0 1-43.712 1.44l-1.536-1.44a32 32 0 0 1 0-45.248l41.366-41.376-41.366-41.376a32 32 0 0 1-1.44-43.712z"/></svg>
